src/24/actions/go-next-context.svg

<svg xmlns="http://www.w3.org/2000/svg" viewBox="0 0 24 24">
  <defs id="defs3051">
    <style type="text/css" id="current-color-scheme">
      .ColorScheme-Text {
        color:#5d656b;
      }
      </style>
  </defs>
 <path style="fill:currentColor;fill-opacity:1;stroke:none" 
     d="M 3 4 L 3 20 L 17 20 L 21 12 L 17 4 L 3 4 z M 8.4277344 8 L 8.4277344 8.5917969 C 7.7170344 8.5917969 7.7070312 8.8309556 7.7070312 9.6972656 L 7.7070312 10.714844 C 7.7070312 11.130314 7.583415 11.747556 6.984375 12.003906 C 7.583415 12.260256 7.7070313 12.879462 7.7070312 13.294922 L 7.7070312 14.302734 C 7.7070312 15.169044 7.7170114 15.408203 8.4277344 15.408203 L 8.4277344 16 C 7.3616444 16 6.9140625 15.647754 6.9140625 14.746094 L 6.9140625 13.523438 C 6.9140625 12.966527 6.8935775 12.322266 6.3046875 12.322266 L 6 12.322266 L 6 11.677734 L 6.3046875 11.677734 C 6.8935575 11.677734 6.9140625 11.033472 6.9140625 10.476562 L 6.9140625 9.2539062 C 6.9140625 8.3522463 7.3616444 8 8.4277344 8 z M 11.564453 8 C 12.630553 8 13.085937 8.3522463 13.085938 9.2539062 L 13.085938 10.476562 C 13.085928 11.033473 13.126338 11.677734 13.705078 11.677734 L 14 11.677734 L 14 12.322266 L 13.705078 12.322266 C 13.126338 12.322266 13.085937 12.966527 13.085938 13.523438 L 13.085938 14.746094 C 13.085928 15.647754 12.630553 16 11.564453 16 L 11.564453 15.408203 C 12.275273 15.408203 12.292969 15.169044 12.292969 14.302734 L 12.292969 13.294922 C 12.292969 12.879462 12.416575 12.260256 13.015625 12.003906 C 12.416575 11.747556 12.292969 11.130314 12.292969 10.714844 L 12.292969 9.6972656 C 12.292969 8.8309556 12.275179 8.5917969 11.564453 8.5917969 L 11.564453 8 z "
     class="ColorScheme-Text"
     />
</svg>

<svg xmlns="http://www.w3.org/2000/svg" viewBox="0 0 24 24"><path d="M3 4v16h14l4-8-4-8H3zm5.428 4v.592c-.711 0-.721.239-.721 1.105v1.018c0 .415-.124 1.033-.723 1.289.6.256.723.875.723 1.29v1.009c0 .866.01 1.105.72 1.105V16c-1.065 0-1.513-.352-1.513-1.254v-1.223c0-.556-.02-1.2-.61-1.2H6v-.645h.305c.589 0 .61-.645.61-1.201V9.254C6.914 8.352 7.361 8 8.427 8zm3.136 0c1.067 0 1.522.352 1.522 1.254v1.223c0 .556.04 1.2.62 1.2H14v.645h-.295c-.579 0-.62.645-.62 1.201v1.223c0 .902-.454 1.254-1.52 1.254v-.592c.71 0 .728-.239.728-1.105v-1.008c0-.416.124-1.035.723-1.291-.6-.256-.723-.874-.723-1.29V9.698c0-.866-.018-1.105-.729-1.105V8z" fill="currentColor" color="#5d656b"/></svg>
